X:1
T:Title
%%score { ( 1 3 5 ) | ( 2 4 ) }
L:1/8
M:4/4
K:Eb
V:1 treble nm="Grand Piano"
V:3 treble 
V:5 treble 
V:2 bass 
V:4 bass 
V:1
 z4 z2[Q:1/4=100] [GB]2 | G3 F E>F G>A | B6 B2 | [Ec]3 [Ed] [Ee]2 [Ec]2 | B3 A G2 [DB]2 | %5
 G3 F E>F G>A | B6 [GB]2 | [F=A]3 [Ge] [Fd]2 [Ec]2 |[M:7/8] B2- [EB-]2 [FB]3 |[M:1/4] [DAc]2 | %10
[M:4/4] [GB]2- [EG-B-]2 [EGB]>G B>=A | A6 z2 | [Ad]6 z2 | G6 z2 | [Ge]6 z2 | A2 [_DG]2 z4 | %16
 B3 B [DA]2 [DF]2 |[M:3/4] [B,E]6 |] %18
V:2
 z4 z2 [E,B,]2 | [E,B,E]3 [E,A,B,] [E,G,B,]>[E,A,B,] [E,B,E]>[E,F,E] | [E,G,E]6 [E,G,E]2 | %3
 [A,,A,]3 [A,,B,] [A,,C]2 [C,A,]2 | [E,G,E]3 [E,CE] [E,B,E]2 [B,,B,]2 | %5
 [E,B,E]3 [E,A,B,] [E,G,B,]>[E,A,B,] [E,B,E]>[E,F,E] | [E,G,E]6 [E,E]2 | %7
 [F,C]3 [F,=A,] [F,A,]2 [F,A,]2 |[M:7/8] z2 G,2 A,3 |[M:1/4] B,,2 | %10
[M:4/4] E,2 E,2 z z/ E/ [G,B,E]>[_G,CE] | [F,B,]2 z2 z4 | B,,2 B,,2 z z/ A/ z z/ A/ | %13
 [E,E]2 E,2 E,2 E,2 | [C,C]2 C,2 C,>[D,=B,] [E,G,E]>[E,G,_D] | %15
 C->[F,C] G,>G,[K:treble] [A,C]2 [=A,E_G]2 | [B,EG]3[K:bass] [B,E] [B,,B,]2 [B,,A,]2 | %17
[M:3/4] [E,G,]6 |] %18
V:3
 x8 | x8 | x8 | x8 | x8 | x8 | x8 | x8 |[M:7/8] [B,D]2 z z z z2 |[M:1/4] x2 |[M:4/4] E2 z2 z4 | %11
 z z/ B,/ B,>B, B,2 [B,FA]2 | F2 F2 z z/ c/ [AB]>c | z2 B,2 B,2 [B,GB]2 | z2 C2 C>[Fd] c>B | %15
 z z/ A,/ B,>B, F2 c2 | x8 |[M:3/4] x6 |] %18
V:4
 x8 | x8 | x8 | x8 | x8 | x8 | x8 | x8 |[M:7/8] B,,-B,,-B,,- B,,- B,,3 |[M:1/4] x2 | %10
[M:4/4] z4 E,2 z2 | D->[F,D-] [B,,D-]>[B,,D-] [F,D]2 B,,2 | z4 B,2 B,,2 | x8 | x8 | %15
 [F,A,]2 z2[K:treble] z4 | x3[K:bass] x5 |[M:3/4] x6 |] %18
V:5
 x8 | x8 | x8 | x8 | x8 | x8 | x8 | x8 |[M:7/8] x7 |[M:1/4] x2 |[M:4/4] x8 | x8 | z4 F2 D2 | x8 | %14
 x8 | x8 | x8 |[M:3/4] x6 |] %18

